X:394
T:Polska efter Kristian Oskarsson
R:Polska
Z:Transcribed to abcby Jon Magnusson 080828
O:Björkede, Jämtland
M:3/4
L:1/8
K:D
(3e(fe) de c>e|a(g/2f/2 e>)(dc>)e|(3d(df) (3c(Ac) B>G|A>A cA E2|
(3e(fe) de c>e|a(g/2f/2 e>)(dc>)e|(3d(df) (3c(Ac) B>G|A2A4:|
|:A,>A, (3A,B,C (3 A,B,C|D>D (3DEF (3DEF|E>E (3EFG (3EFG|(3:2:4 A2A2cA E2| 
A,>A, (3A,B,C (3 A,B,C|D>D (3DEF (3DEF|E>E (3EFG (3EFG|A2A4:|
(:musicend:)

%green% Fråga: ska den inte gå i A dur? /Nils %red% Eller kanske A-mixolydisk om förtecknen är rätt? \Jonas %blue% Swåp spelar den så men med A-durs förtecken, tror jag /Håkan
(:music:)
